X:1
T:Texas Jack
M:6/8
L:1/8
K:E
 B3| G2 E G2 F| E3 B,2 A,| G,2 B, E2 D| E3- E2 B,| E2 EF-G A| B3 c2 B|\
 A2 FF-G A| B3- B2 B,| E2 EF-G A| B3 c2 B| A F2 G2 A| B3- B2 A|G-F E G2 F|\
 E3 B,2 A,| G,2 B, E2 D| E3||

